IconSet/ionicons.iconjar/icons/logo-foursquare.svg

<?xml version="1.0" encoding="utf-8"?>
<!-- Generator: Adobe Illustrator 16.2.1, SVG Export Plug-In . SVG Version: 6.00 Build 0)  -->
<!DOCTYPE svg PUBLIC "-//W3C//DTD SVG 1.1//EN" "http://www.w3.org/Graphics/SVG/1.1/DTD/svg11.dtd">
<svg version="1.1" id="Layer_1" xmlns="http://www.w3.org/2000/svg" xmlns:xlink="http://www.w3.org/1999/xlink" x="0px" y="0px"
	 width="512px" height="512px" viewBox="0 0 512 512" enable-background="new 0 0 512 512" xml:space="preserve">
<g>
	<g>
		<path d="M376.764,32c0,0-205.353,0-238.223,0C105.666,32,96,56.798,96,72.414c0,15.627,0,379.64,0,379.64
			c0,17.591,9.425,24.117,14.718,26.267c5.299,2.155,19.916,3.971,28.673-6.168c0,0,112.469-130.895,114.4-132.834
			c2.921-2.93,2.921-2.93,5.844-2.93c5.844,0,49.192,0,72.767,0c30.574,0,35.49-21.869,38.684-34.752
			c2.659-10.789,32.489-163.962,42.452-212.559C421.143,51.993,411.745,32,376.764,32z M371.086,301.637
			c2.659-10.789,32.489-163.962,42.452-212.559 M362.692,96.67l-9.999,51.734c-1.195,5.65-8.287,11.595-14.863,11.595
			c-6.575,0-95.917,0-95.917,0C231.473,160,224,166.138,224,176.602v13.448c0,10.473,7.519,17.894,17.965,17.894
			c0,0,74.482,0,81.848,0c7.374,0,14.61,8.109,13.016,16.005c-1.602,7.908-9.086,46.569-9.984,50.89
			c-0.902,4.328-5.845,11.725-14.611,11.725c-7.388,0-64.269,0-64.269,0c-11.705,0-15.244,1.533-23.074,11.293
			c-7.837,9.77-78.256,94.592-78.256,94.592c-0.713,0.822-1.41,0.584-1.41-0.312V95.896c0-6.684,5.793-14.523,14.479-14.523
			c0,0,183.713,0,191.173,0C357.912,81.372,364.488,88.004,362.692,96.67z"/>
	</g>
</g>
</svg>

<svg xmlns="http://www.w3.org/2000/svg" width="512" height="512" viewBox="0 0 512 512"><title>ionicons-v5_logos</title><path d="M376.76,32H138.54C105.67,32,96,56.8,96,72.41V452.05c0,17.59,9.42,24.12,14.72,26.27s19.91,4,28.67-6.17c0,0,112.47-130.89,114.4-132.83,2.92-2.93,2.92-2.93,5.84-2.93H332.4c30.58,0,35.49-21.87,38.69-34.75,2.65-10.79,32.48-164,42.45-212.56C421.14,52,411.74,32,376.76,32Zm-5.67,269.64c2.65-10.79,32.48-164,42.45-212.56m-50.85,7.59-10,51.73c-1.19,5.65-8.28,11.6-14.86,11.6H241.91c-10.44,0-17.91,6.14-17.91,16.6v13.45c0,10.47,7.52,17.89,18,17.89h81.85c7.38,0,14.61,8.11,13,16s-9.09,46.57-10,50.89-5.84,11.72-14.61,11.72H248c-11.7,0-15.24,1.54-23.07,11.3s-78.26,94.59-78.26,94.59c-.71.82-1.41.58-1.41-.31V95.9c0-6.69,5.8-14.53,14.48-14.53H350.88A12.42,12.42,0,0,1,362.69,96.67Z"/></svg>
